Numix-GalliumOS/32/actions/stock_select-column.svg

<svg xmlns="http://www.w3.org/2000/svg" viewBox="0 0 32 32">
 <rect width="6" height="22" x="13" y="5" style="fill:#cecece;opacity:1;fill-opacity:1;stroke:none;fill-rule:nonzero"/>
 <path d="m 3 3 l 0 2 l 0 6 l 0 2 l 0 6 l 0 2 l 0 6 l 0 2 l 26 0 l 0 -2 l 0 -14 l 0 -2 l 0 -8 l -26 0 z m 2 2 l 6 0 l 0 6 l -6 0 l 0 -6 z m 8 0 l 6 0 l 0 6 l -6 0 l 0 -6 z m 8 0 l 6 0 l 0 6 l -6 0 l 0 -6 z m -16 8 l 6 0 l 0 6 l -6 0 l 0 -6 z m 8 0 l 6 0 l 0 6 l -6 0 l 0 -6 z m 8 0 l 6 0 l 0 6 l -6 0 l 0 -6 z m -16 8 l 6 0 l 0 6 l -6 0 l 0 -6 z m 8 0 l 6 0 l 0 6 l -6 0 l 0 -6 z m 8 0 l 6 0 l 0 6 l -6 0 l 0 -6 z" style="fill:#888;opacity:1;fill-opacity:1;stroke:none;fill-rule:nonzero"/>
</svg>

<?xml version="1.0" encoding="UTF-8" standalone="no"?>
<svg
   xmlns:dc="http://purl.org/dc/elements/1.1/"
   xmlns:cc="http://creativecommons.org/ns#"
   xmlns:rdf="http://www.w3.org/1999/02/22-rdf-syntax-ns#"
   xmlns:svg="http://www.w3.org/2000/svg"
   xmlns="http://www.w3.org/2000/svg"
   xmlns:sodipodi="http://sodipodi.sourceforge.net/DTD/sodipodi-0.dtd"
   xmlns:inkscape="http://www.inkscape.org/namespaces/inkscape"
   viewBox="0 0 32 32"
   id="svg2"
   version="1.1"
   inkscape:version="0.91 r13725"
   sodipodi:docname="stock_select-column.svg"
   width="32"
   height="32">
  <metadata
     id="metadata98">
    <rdf:RDF>
      <cc:Work
         rdf:about="">
        <dc:format>image/svg+xml</dc:format>
        <dc:type
           rdf:resource="http://purl.org/dc/dcmitype/StillImage" />
        <dc:title />
      </cc:Work>
    </rdf:RDF>
  </metadata>
  <sodipodi:namedview
     pagecolor="#ffffff"
     bordercolor="#666666"
     borderopacity="1"
     objecttolerance="10"
     gridtolerance="10"
     guidetolerance="10"
     inkscape:pageopacity="0"
     inkscape:pageshadow="2"
     inkscape:window-width="1280"
     inkscape:window-height="998"
     id="namedview96"
     showgrid="true"
     inkscape:zoom="19.666668"
     inkscape:cx="7.8389181"
     inkscape:cy="17.802436"
     inkscape:window-x="0"
     inkscape:window-y="0"
     inkscape:window-maximized="1"
     inkscape:current-layer="svg2">
    <inkscape:grid
       type="xygrid"
       id="grid4360" />
  </sodipodi:namedview>
  <defs
     id="defs4">
    <path
       id="SVGCleanerId_0"
       d="m 14,12 20,0 c 1.105,0 2,0.895 2,2 l 0,20 c 0,1.105 -0.895,2 -2,2 l -20,0 c -1.105,0 -2,-0.895 -2,-2 l 0,-20 c 0,-1.105 0.895,-2 2,-2 m 0,0"
       inkscape:connector-curvature="0" />
  </defs>
  <rect
     style="opacity:1;fill:#cecece;fill-opacity:1;fill-rule:nonzero;stroke:none;stroke-width:1;stroke-linejoin:round;stroke-miterlimit:4;stroke-dasharray:none;stroke-opacity:1"
     id="rect4135"
     width="6"
     height="22"
     x="13"
     y="5" />
  <path
     style="opacity:1;fill:#888888;fill-opacity:1;fill-rule:nonzero;stroke:none;stroke-width:1;stroke-linejoin:round;stroke-miterlimit:4;stroke-dasharray:none;stroke-opacity:1"
     d="M 3 3 L 3 5 L 3 11 L 3 13 L 3 19 L 3 21 L 3 27 L 3 29 L 29 29 L 29 27 L 29 13 L 29 11 L 29 3 L 3 3 z M 5 5 L 11 5 L 11 11 L 5 11 L 5 5 z M 13 5 L 19 5 L 19 11 L 13 11 L 13 5 z M 21 5 L 27 5 L 27 11 L 21 11 L 21 5 z M 5 13 L 11 13 L 11 19 L 5 19 L 5 13 z M 13 13 L 19 13 L 19 19 L 13 19 L 13 13 z M 21 13 L 27 13 L 27 19 L 21 19 L 21 13 z M 5 21 L 11 21 L 11 27 L 5 27 L 5 21 z M 13 21 L 19 21 L 19 27 L 13 27 L 13 21 z M 21 21 L 27 21 L 27 27 L 21 27 L 21 21 z "
     id="rect4151" />
</svg>
